Simply black circles/scalable/actions/extract-archive.svg

<?xml version="1.0" encoding="UTF-8" standalone="no"?>
<svg
   xmlns:dc="http://purl.org/dc/elements/1.1/"
   xmlns:cc="http://creativecommons.org/ns#"
   xmlns:rdf="http://www.w3.org/1999/02/22-rdf-syntax-ns#"
   xmlns:svg="http://www.w3.org/2000/svg"
   xmlns="http://www.w3.org/2000/svg"
   xmlns:sodipodi="http://sodipodi.sourceforge.net/DTD/sodipodi-0.dtd"
   xmlns:inkscape="http://www.inkscape.org/namespaces/inkscape"
   viewBox="0 0 24 24"
   version="1.1"
   id="svg4"
   sodipodi:docname="extract-archive.svg"
   inkscape:version="0.92.3 (2405546, 2018-03-11)"
   width="24"
   height="24"
   style="fill:#000000">
  <metadata
     id="metadata10">
    <rdf:RDF>
      <cc:Work
         rdf:about="">
        <dc:format>image/svg+xml</dc:format>
        <dc:type
           rdf:resource="http://purl.org/dc/dcmitype/StillImage" />
        <dc:title></dc:title>
      </cc:Work>
    </rdf:RDF>
  </metadata>
  <defs
     id="defs8" />
  <sodipodi:namedview
     pagecolor="#ffffff"
     bordercolor="#666666"
     borderopacity="1"
     objecttolerance="10"
     gridtolerance="10"
     guidetolerance="10"
     inkscape:pageopacity="0"
     inkscape:pageshadow="2"
     inkscape:window-width="1366"
     inkscape:window-height="717"
     id="namedview6"
     showgrid="false"
     inkscape:zoom="11.208333"
     inkscape:cx="12"
     inkscape:cy="12"
     inkscape:window-x="0"
     inkscape:window-y="25"
     inkscape:window-maximized="1"
     inkscape:current-layer="svg4"
     showguides="true"
     inkscape:guide-bbox="true" />
  <path
     style="opacity:1;fill:#333333;fill-opacity:0.9953271;stroke:#4d4d4d;stroke-width:0;stroke-miterlimit:4;stroke-dasharray:none;stroke-opacity:1"
     d="M 12 1.0019531 A 10.999424 10.999424 0 0 0 1 12 A 10.999424 10.999424 0 0 0 12 23 A 10.999424 10.999424 0 0 0 22.998047 12 A 10.999424 10.999424 0 0 0 12 1.0019531 z M 12 8.25 L 17.5 13.75 L 14 13.75 L 14 15.75 L 10 15.75 L 10 13.75 L 6.5 13.75 L 12 8.25 z "
     id="path814" />
</svg>

<svg xmlns="http://www.w3.org/2000/svg" viewBox="0 0 24 24">
  <path fill="#333" fill-opacity=".99533" d="M12 1.002A10.999 10.999 0 0 0 1 12a10.999 10.999 0 0 0 11 11 10.999 10.999 0 0 0 10.998-11A10.999 10.999 0 0 0 12 1.002zm0 7.248l5.5 5.5H14v2h-4v-2H6.5l5.5-5.5z"/>
</svg>
